!!!OTL: WENN WIR DURCH DIE STRASSEN ZIEHEN
!!!ARE: Europa, Mitteleuropa, Deutschland
!!!SCT: B0563
!!!YEM: Copyright 1995, estate of Helmut Schaffrath.
**kern
*ICvox
*Ivox
*M4/4
*k[b-e-a-]
*E-:
{4g
4g
=1
4.b-
8g
8g
8f
8e-
8f
=2
4g
4e-}
{4.g
8g
=3
4f
4b-
4.dd
8cc
=4
2b-}
{4g
4g
=5
4.b-
8g
8g
8f
8e-
8f
=6
4g
4e-}
{4.g
8g
=7
4f
4b-
4.dd
8cc
=8
2b-}
{4b-
4b-
=9
8cc
8b-
8cc
8b-
8cc
8b-
8cc
8b-
=10
8b-
8ee-
4ee-}
{8ee-
8b-
8a-
8g
=11
4.f
8f
4b-
4a-
=12
2g}
{4b-
4b-
=13
8cc
8b-
8cc
8b-
8cc
8b-
8cc
8b-
=14
8b-
8ee-
4ee-}
{8ee-
8b-
8a-
8g
=15
4f
4cc
4.b-
8d
=16
2e-}
==
!!!AGN: Studenten -, Wander -, Liebes - Lied
!!!ONB: ESAC (Essen Associative Code) Database: BOEHME
!!!AMT: simple quadruple
!!!AIN: vox
!!!EED: Helmut Schaffrath
!!!EEV: 1.0
*-
